X:94
T:Y Delyn Aur - The Golden Harp
M:4/4
L:1/8
Q:120
C:Trad.
R:Hymn
K:G
E2 F2 GA B2 | BA G2 A2 B2 | B2 B2 EB AG | F2 F2 E4 :||
G2 G2 F2 F2 | EF GA B2 B2 | BB BA GA B2 | BB BA GA B2|
B2 B2 EB AG | F2 F2 E4 ||
